X:15
T:Cuz from Castleisland
R:reel
C: 1976, 2010 L.E. McCullough  
M:4/4
L:1/8
K:G
|:~B3d cAFG|A2FA DAFA|~B3d c~A3|DFAc B~G3|
~B2dB cAFG|~A2FA DAFA|(3B^cd ge fd=cA|DFAc B~G3:|
|:d~g3 ~f3d|c~A3 F~A3|~g3b ~a3g|fdcA B~G3|
d~g3 fdcA|F~A3 dAFA|d~g3 ~a3g|fdcA B~G3:|
<end>
<start>
